!!!OTL: EINSAM WANDELT DEIN FREUND
!!!ARE: Europa, Mitteleuropa, Deutschland
!!!SCT: F0930
!!!YEM: Copyright 1995, estate of Helmut Schaffrath.
**kern
*ICvox
*Ivox
*M4/4
*k[f#]
*G:
{8dd
8b
=1
4g
8g
8g
8g
8g
8b
8dd
=2
8dd
8cc
4cc
4r}
{8cc
8a
=3
4f#
8a
8f#
8d
8ee
8dd
8cc
=4
8a#
8b
4b
4r}
{8g
8g
=5
4gg
8ff#
8ff#
8ee
8ff#
8gg
16ff#
16ee
=6
8.dd
16b
8dd
8r}
{4dd
8dd
8f#
=7
4a
4g
4r}
==
!!!AGN: Liebes - Lied
!!!ONB: ESAC (Essen Associative Code) Database: FINK
!!!AMT: simple quadruple
!!!AIN: vox
!!!EED: Helmut Schaffrath
!!!EEV: 1.0
*-
